X: 4046
T: BRAW LADS
R: Strathspey.
%R: strathspey
B: James Kerr "Merry Melodies" v.4 p.08 #46
Z: 2016 John Chambers <jc:trillian.mit.edu>
M: C
L: 1/8
K: D
|:\
vA>vduB>ud A>dB>d | A<A d>e f3 d |\
g<g g>b a>fe>d | e>fe>d B2A2 ::\
a>df>d a>df>d |
a<ad>e f3a |\
[1 b>eg>e b>eg>e | b<b e>f g2(f>g) :|\
[2 b>ga>f g>ef>d | e<g f>e d3B |]

%%sep 1 1 500
%%sep 1 1 500

